X: 12471
T: Farewell To Craigie Dhu
R: barndance
M: 4/4
K: Dmixolydian
V:1
|:AB|c4 efga|f2 (d2 d2) AB|c3A B3G|GFGB A2 AB|
V:2
|:FG|A4 cdef|d2 (A2 A2) FG|A3F G3E|D2 DG F2 FG|
V:1
c4 efga|f2 (d2 d2) AB|c3A B3G|1 GF (D2 D2) AB:|2 GF D4 fg||
V:2
A4 cdef|d2 (A2 A2) FG|A3F G3E|1 (D4 D2) FG:|2 (D4 D2) de||
V:1
a3f g3e|fgfd c3A|(B2 B2) BABd|B2 (A2 A2) fg|
V:2
f3d e3c|(d4 d)cAF|(G2 G2) GFGB|G2 F2 D2 de|
V:1
a3f g3e|fgfd c3A|cdcA GFGA|1 F2 (D2 D2) fg:|F2 (D2 D4)||
V:2
f3d e3c|d4 A3F|A2 F2 G2 E2|1 (D4 D2) de:|2 (D4 D4)||

